!!!OTL: Christus qui genitus
**kern
*staff1
=1-
*clefF4
*k[b-]
*met(c|)
*M2/2
2F\
2F\
1F
=2
2F\
2F\
1F
=3
2BB-/
2BB-/
1BB-
=4
2F\
2F\
1F
!!linebreak:original
=5
1F
2F\
2BB-/
=6
1F
2F\
2BB-/
=7
2E-\
2E-\
2E-\
2E-\
=8
1C
2E\
2C/
=9
!!linebreak:original
1F
1C
=10
2E\
2E\
2E\
2E\
=11
1C
2E\
2C/
=12
2F\
2D\
1C
=13
0FF
=14
!!linebreak:original
1F
2D\
2C/
=15
1F
1F
=16
1F
2D\
2BB-/
=17
1F
1F
=18
1F
2F\
2BB-/
=19
!!linebreak:original
1F
2F\
1BB-
2F\
1C
=20
1FF
1F
=21
2F\
2BB-/
1F
=22
2F\
1BB-
2F\
1C
0FF
==
*-
!!title: @{OTL}, @{GTL}, ed. @{ENC}
!!!pag:
!!!GTL: Hymnbook D
!!!EFL: 
!!!YEM: Creative Commons CC/BY/NC/SA 4.0
!!!ENC: Marcin Konik
!!!END: 2015-0m-dd
!!!EED: Marcin Konik
!!!EEV: 
!!!ONB: Encoded in vim by Marcin Konik
!!!CharacterEncoding: utf-8
!!!RDF**kern: l=long note in original notation
!!!RDF**kern: i=editorial accidental
!!muse2ps: z14jc180F
!!!COM: Anonim
!!!CDT: [?]
!!!TXO: Polish
!!!ODT: 
!!!GTL: Hymnbook D
!!!ARL: Opactwo św. Wojciecha, Staniątki 
!!!voices:	1
